img/svg/at24-3.svg

<svg width="24" height="21" viewBox="0 0 24 21" fill="none" xmlns="http://www.w3.org/2000/svg">
<path d="M23.25 1.875C23.4375 1.875 23.625 1.96875 23.7656 2.10938C23.9062 2.25 24 2.4375 24 2.625V3.375C24 3.60938 23.9062 3.79688 23.7656 3.9375C23.625 4.07812 23.4375 4.125 23.25 4.125H13.5V5.25C13.5 5.48438 13.4062 5.67188 13.2656 5.8125C13.125 5.95312 12.9375 6 12.75 6H11.25C11.0156 6 10.8281 5.95312 10.6875 5.8125C10.5469 5.67188 10.5 5.48438 10.5 5.25V4.125H0.75C0.515625 4.125 0.328125 4.07812 0.1875 3.9375C0.046875 3.79688 0 3.60938 0 3.375V2.625C0 2.4375 0.046875 2.25 0.1875 2.10938C0.328125 1.96875 0.515625 1.875 0.75 1.875H10.5V0.75C10.5 0.5625 10.5469 0.375 10.6875 0.23438C10.8281 0.09375 11.0156 0 11.25 0H12.75C12.9375 0 13.125 0.09375 13.2656 0.23438C13.4062 0.375 13.5 0.5625 13.5 0.75V1.875H23.25ZM23.25 16.875C23.4375 16.875 23.625 16.9688 23.7656 17.1094C23.9062 17.25 24 17.4375 24 17.625V18.375C24 18.6094 23.9062 18.7969 23.7656 18.9375C23.625 19.0781 23.4375 19.125 23.25 19.125H7.5V20.25C7.5 20.4844 7.40625 20.6719 7.26562 20.8125C7.125 20.9531 6.9375 21 6.75 21H5.25C5.01562 21 4.82812 20.9531 4.6875 20.8125C4.54688 20.6719 4.5 20.4844 4.5 20.25V19.125H0.75C0.515625 19.125 0.328125 19.0781 0.1875 18.9375C0.046875 18.7969 0 18.6094 0 18.375V17.625C0 17.4375 0.046875 17.25 0.1875 17.1094C0.328125 16.9688 0.515625 16.875 0.75 16.875H4.5V15.75C4.5 15.5625 4.54688 15.375 4.6875 15.2344C4.82812 15.0938 5.01562 15 5.25 15H6.75C6.9375 15 7.125 15.0938 7.26562 15.2344C7.40625 15.375 7.5 15.5625 7.5 15.75V16.875H23.25ZM23.25 9.375C23.4375 9.375 23.625 9.4688 23.7656 9.6094C23.9062 9.75 24 9.9375 24 10.125V10.875C24 11.1094 23.9062 11.2969 23.7656 11.4375C23.625 11.5781 23.4375 11.625 23.25 11.625H19.5V12.75C19.5 12.9844 19.4062 13.1719 19.2656 13.3125C19.125 13.4531 18.9375 13.5 18.75 13.5H17.25C17.0156 13.5 16.8281 13.4531 16.6875 13.3125C16.5469 13.1719 16.5 12.9844 16.5 12.75V11.625H0.75C0.515625 11.625 0.328125 11.5781 0.1875 11.4375C0.046875 11.2969 0 11.1094 0 10.875V10.125C0 9.9375 0.046875 9.75 0.1875 9.6094C0.328125 9.4688 0.515625 9.375 0.75 9.375H16.5V8.25C16.5 8.0625 16.5469 7.875 16.6875 7.73438C16.8281 7.59375 17.0156 7.5 17.25 7.5H18.75C18.9375 7.5 19.125 7.59375 19.2656 7.73438C19.4062 7.875 19.5 8.0625 19.5 8.25V9.375H23.25Z" fill="#FFD500"/>
</svg>

<svg width="24" height="21" viewBox="0 0 24 21" fill="none" xmlns="http://www.w3.org/2000/svg"><path d="M23.25 1.875c.188 0 .375.094.516.234.14.141.234.329.234.516v.75a.776.776 0 01-.234.563c-.141.14-.328.187-.516.187H13.5V5.25a.776.776 0 01-.234.563c-.141.14-.329.187-.516.187h-1.5c-.234 0-.422-.047-.563-.188-.14-.14-.187-.328-.187-.562V4.125H.75c-.234 0-.422-.047-.563-.188C.047 3.797 0 3.61 0 3.375v-.75c0-.188.047-.375.188-.516a.776.776 0 01.562-.234h9.75V.75c0-.188.047-.375.188-.516A.776.776 0 0111.25 0h1.5c.188 0 .375.094.516.234.14.141.234.328.234.516v1.125h9.75zm0 15c.188 0 .375.094.516.234.14.141.234.328.234.516v.75a.776.776 0 01-.234.563c-.141.14-.328.187-.516.187H7.5v1.125a.776.776 0 01-.234.563c-.141.14-.329.187-.516.187h-1.5c-.234 0-.422-.047-.563-.188-.14-.14-.187-.328-.187-.562v-1.125H.75c-.234 0-.422-.047-.563-.188-.14-.14-.187-.328-.187-.562v-.75c0-.188.047-.375.188-.516a.776.776 0 01.562-.234H4.5V15.75c0-.188.047-.375.188-.516A.776.776 0 015.25 15h1.5c.188 0 .375.094.516.234.14.141.234.329.234.516v1.125h15.75zm0-7.5c.188 0 .375.094.516.234.14.141.234.329.234.516v.75a.776.776 0 01-.234.563c-.141.14-.328.187-.516.187H19.5v1.125a.776.776 0 01-.234.563c-.141.14-.328.187-.516.187h-1.5c-.234 0-.422-.047-.563-.188-.14-.14-.187-.328-.187-.562v-1.125H.75c-.234 0-.422-.047-.563-.188-.14-.14-.187-.328-.187-.562v-.75c0-.188.047-.375.188-.516a.776.776 0 01.562-.234H16.5V8.25c0-.188.047-.375.188-.516a.776.776 0 01.562-.234h1.5c.188 0 .375.094.516.234.14.141.234.329.234.516v1.125h3.75z" fill="#FFD500"/></svg>
